svgs/sharp-solid/circle-f.svg

<svg xmlns="http://www.w3.org/2000/svg" viewBox="0 0 512 512"><!--! Font Awesome Pro 6.6.0 by @fontawesome - https://fontawesome.com License - https://fontawesome.com/license (Commercial License) Copyright 2024 Fonticons, Inc. --><path d="M256 512A256 256 0 1 0 256 0a256 256 0 1 0 0 512zM184 128l144 0 24 0 0 48-24 0-120 0 0 64 88 0 24 0 0 48-24 0-88 0 0 72 0 24-48 0 0-24 0-96 0-112 0-24 24 0z"/></svg>

<svg xmlns="http://www.w3.org/2000/svg" viewBox="0 0 512 512"><!--! Font Awesome Pro 6.4.0 by @fontawesome - https://fontawesome.com License - https://fontawesome.com/license (Commercial License) Copyright 2023 Fonticons, Inc. --><path d="M256 512A256 256 0 1 0 256 0a256 256 0 1 0 0 512zM184 128H328h24v48H328 208v64h88 24v48H296 208v72 24H160V360 264 152 128h24z"/></svg>
